X: 1
T: Himlens polska   [Gm]
O: trad. Finland
Z: 2013 John Chambers <jc:trillian.mit.edu>
R: Sl\"angpolska
M: 3/4
L: 1/16
K: Gm
D2F2 "A"|\
G3A G2F2 G2A2 | B3c B2A2 B2c2 | d2cd e2dc d2cB |1,3 B2AG FGAF :|2,4 BAGF G4 :|
|: GABc "B"|\
d4 d3e d2c2 | B2A2 A2F2 D4 | f4 f3g f2e2 | d2c2 c2Bc B4 | a4 a4 g4 |
f3g a2f2 d2B2 | b2b2 a2a2 g2g2 | f3g a2f2 d2fd | e3d c2B2 A2G2 | BAGF G4 :|

%%sep 1 1 500

